packages/vibrant-icons/assets/icons/Person2/Fill.svg

<svg width="22" height="20" viewBox="0 0 22 20" fill="none" xmlns="http://www.w3.org/2000/svg">
<path d="M6.85 0C4.37853 0 2.375 2.00353 2.375 4.475C2.375 6.94647 4.37853 8.95 6.85 8.95C9.32147 8.95 11.325 6.94647 11.325 4.475C11.325 2.00353 9.32147 0 6.85 0Z" fill="#0C0C0C"/>
<path d="M16.6 3C14.4047 3 12.625 4.77967 12.625 6.975C12.625 9.17033 14.4047 10.95 16.6 10.95C18.7953 10.95 20.575 9.17033 20.575 6.975C20.575 4.77967 18.7953 3 16.6 3Z" fill="#0C0C0C"/>
<path d="M16.6 11.75C15.1001 11.75 13.7515 12.3975 12.8183 13.4282C11.6528 11.2862 9.44136 9.75 6.85 9.75C3.00728 9.75 0 13.1282 0 16.85V19.75C0 19.8605 0.0895429 19.95 0.2 19.95H11.5501C11.6606 19.95 11.7501 19.8605 11.7501 19.75V17.3C11.7501 17.1895 11.8396 17.1 11.9501 17.1H13.2501C13.3606 17.1 13.4501 17.1895 13.4501 17.3V19.75C13.4501 19.8605 13.5396 19.95 13.6501 19.95H21.5C21.6105 19.95 21.7 19.8605 21.7 19.75V16.85C21.7 14.0333 19.4167 11.75 16.6 11.75Z" fill="#0C0C0C"/>
</svg>

<svg xmlns="http://www.w3.org/2000/svg" width="22" height="20" fill="none"><path fill="#0C0C0C" d="M6.85 0a4.475 4.475 0 1 0 0 8.95 4.475 4.475 0 0 0 0-8.95M16.6 3a3.975 3.975 0 1 0 0 7.95 3.975 3.975 0 0 0 0-7.95M16.6 11.75c-1.5 0-2.849.648-3.782 1.678C11.653 11.286 9.441 9.75 6.85 9.75 3.007 9.75 0 13.128 0 16.85v2.9c0 .11.09.2.2.2h11.35a.2.2 0 0 0 .2-.2V17.3c0-.11.09-.2.2-.2h1.3c.11 0 .2.09.2.2v2.45c0 .11.09.2.2.2h7.85a.2.2 0 0 0 .2-.2v-2.9a5.1 5.1 0 0 0-5.1-5.1"/></svg>
